Newaita-dark/apps/16/hitori.svg

<svg height="16pt" viewBox="0 0 16 16" width="16pt" xmlns="http://www.w3.org/2000/svg" xmlns:xlink="http://www.w3.org/1999/xlink"><linearGradient id="a" gradientUnits="userSpaceOnUse" x1="7.9375" x2="7.9375" y1="13.734875" y2="14.39634375"><stop offset="0" stop-opacity=".275"/><stop offset="1" stop-opacity="0"/></linearGradient><linearGradient id="b"><stop offset="0" stop-opacity=".314"/><stop offset=".222" stop-opacity=".275"/><stop offset="1" stop-opacity="0"/></linearGradient><radialGradient id="c" cx="450.909" cy="189.579" gradientTransform="matrix(0 -.03907 -.07032 0 25.735 31.516)" gradientUnits="userSpaceOnUse" r="21.167" xlink:href="#b"/><radialGradient id="d" cx="450.909" cy="189.579" gradientTransform="matrix(0 .03907 .07032 0 -9.858 -4.045)" gradientUnits="userSpaceOnUse" r="21.167" xlink:href="#b"/><radialGradient id="e" cx="450.909" cy="189.579" gradientTransform="matrix(0 -.03907 .07032 0 -9.858 31.516)" gradientUnits="userSpaceOnUse" r="21.167" xlink:href="#b"/><radialGradient id="f" cx="450.909" cy="189.579" gradientTransform="matrix(0 .03907 -.07032 0 25.735 -4.045)" gradientUnits="userSpaceOnUse" r="21.167" xlink:href="#b"/><linearGradient id="g"><stop offset="0" stop-color="#e0e0e0"/><stop offset="1" stop-color="#eee"/></linearGradient><linearGradient id="h" gradientUnits="userSpaceOnUse" x1="127" x2="127" xlink:href="#g" y1="-31.083" y2="-158.083"/><linearGradient id="i" gradientUnits="userSpaceOnUse" x1="381" x2="381" xlink:href="#g" y1="-31.083" y2="-158.083"/><linearGradient id="j"><stop offset="0" stop-color="#ef5350"/><stop offset="1" stop-color="#e57373"/></linearGradient><linearGradient id="k" gradientUnits="userSpaceOnUse" x1="127" x2="127" xlink:href="#j" y1="222.917" y2="95.917"/><linearGradient id="l" gradientUnits="userSpaceOnUse" x1="127" x2="127" xlink:href="#g" y1="95.917" y2="-31.083"/><linearGradient id="m" gradientUnits="userSpaceOnUse" x1="381" x2="381" xlink:href="#g" y1="222.917" y2="95.917"/><linearGradient id="n" gradientUnits="userSpaceOnUse" x1="381" x2="381" y1="95.917" y2="-31.083"><stop offset="0" stop-color="#81c784"/><stop offset="1" stop-color="#a5d6a7"/></linearGradient><linearGradient id="o" gradientUnits="userSpaceOnUse" x1="254" x2="254" xlink:href="#g" y1="95.917" y2="-31.083"/><linearGradient id="p" gradientUnits="userSpaceOnUse" x1="254" x2="254" xlink:href="#j" y1="222.917" y2="95.917"/><linearGradient id="q" gradientUnits="userSpaceOnUse" x1="254" x2="254" y1="-31.083" y2="-158.083"><stop offset="0" stop-color="#424242"/><stop offset="1" stop-color="#616161"/></linearGradient><path d="m3.309 13.71h9.261v.712h-9.26zm0 0" fill="url(#a)"/><path d="m12.57 13.734h1.32v-.66h-1.32zm0 0" fill="url(#c)"/><path d="m3.309 13.734h-1.325v.664h1.326zm0 0" fill="url(#d)"/><path d="m3.309 13.734h-1.325v-.66h1.326zm0 0" fill="url(#e)"/><path d="m12.57 13.734h1.32v.664h-1.32zm0 0" fill="url(#f)"/><g stroke="#212121" stroke-linecap="round" stroke-width="3"><path d="m84.617-158.13h105.865c11.749 0 21.123 9.499 21.123 21.248v105.74c0 11.748-9.374 21.247-21.123 21.247h-105.865c-11.624 0-21.123-9.499-21.123-21.248v-105.74c0-11.748 9.499-21.247 21.123-21.247zm0 0" fill="url(#h)" transform="matrix(.03125 0 0 .03125 0 6.72)"/><path d="m317.47-158.13h105.865c11.748 0 21.123 9.499 21.123 21.248v105.74c0 11.748-9.375 21.247-21.123 21.247h-105.865c-11.624 0-21.123-9.499-21.123-21.248v-105.74c0-11.748 9.499-21.247 21.123-21.247zm0 0" fill="url(#i)" transform="matrix(.03125 0 0 .03125 0 6.72)"/><path d="m84.617 74.722h105.865c11.749 0 21.123 9.5 21.123 21.248v105.74c0 11.75-9.374 21.248-21.123 21.248h-105.865c-11.624 0-21.123-9.499-21.123-21.248v-105.74c0-11.749 9.499-21.248 21.123-21.248zm0 0" fill="url(#k)" transform="matrix(.03125 0 0 .03125 0 6.72)"/><path d="m63.494-31.143h126.988v127.113h-126.988zm0 0" fill="url(#l)" transform="matrix(.03125 0 0 .03125 0 6.72)"/><path d="m317.47 74.722h105.865c11.748 0 21.123 9.5 21.123 21.248v105.74c0 11.75-9.375 21.248-21.123 21.248h-105.865c-11.624 0-21.123-9.499-21.123-21.248v-105.74c0-11.749 9.499-21.248 21.123-21.248zm0 0" fill="url(#m)" transform="matrix(.03125 0 0 .03125 0 6.72)"/><path d="m317.47-31.143h126.988v127.113h-126.988zm0 0" fill="url(#n)" transform="matrix(.03125 0 0 .03125 0 6.72)"/><path d="m190.482-31.143h126.988v127.113h-126.988zm0 0" fill="url(#o)" transform="matrix(.03125 0 0 .03125 0 6.72)"/><path d="m190.482 95.97h126.988v126.988h-126.988zm0 0" fill="url(#p)" transform="matrix(.03125 0 0 .03125 0 6.72)"/><path d="m190.482-158.13h126.988v126.987h-126.988zm0 0" fill="url(#q)" transform="matrix(.03125 0 0 .03125 0 6.72)"/></g><path d="m2.645 1.777a.663.663 0 0 0 -.66.664v.09c0-.367.296-.664.66-.664h10.585a.66.66 0 0 1 .66.664v-.09a.66.66 0 0 0 -.66-.664zm0 0" fill="#fff" fill-opacity=".784"/><path d="m2.645 13.695a.663.663 0 0 1 -.66-.664v-.09c0 .368.296.66.66.66h10.585c.368 0 .66-.292.66-.66v.09a.66.66 0 0 1 -.66.664zm0 0" fill-opacity=".235"/><path d="m2.645 1.73a.708.708 0 0 0 -.708.711v10.582c0 .395.317.711.708.711h10.585c.391 0 .707-.316.707-.71v-10.584a.708.708 0 0 0 -.707-.71zm0 .094h10.585c.34 0 .614.274.614.617v10.582a.613.613 0 0 1 -.614.618h-10.585a.613.613 0 0 1 -.614-.618v-10.582c0-.343.274-.617.614-.617zm0 0" fill="#212121"/></svg>

<svg xmlns="http://www.w3.org/2000/svg" width="16pt" height="16pt" viewBox="0 0 16 16"><defs><linearGradient id="a" gradientUnits="userSpaceOnUse" x1="254" y1="233.5" x2="254" y2="254.667" gradientTransform="matrix(.03125 0 0 .03125 0 6.438)"><stop offset="0" stop-opacity=".275"/><stop offset="1" stop-opacity="0"/></linearGradient><radialGradient id="b" gradientUnits="userSpaceOnUse" cx="450.909" cy="189.579" fx="450.909" fy="189.579" r="21.167" gradientTransform="matrix(0 -.03907 -.07032 0 25.735 31.516)"><stop offset="0" stop-opacity=".314"/><stop offset=".222" stop-opacity=".275"/><stop offset="1" stop-opacity="0"/></radialGradient><radialGradient id="c" gradientUnits="userSpaceOnUse" cx="450.909" cy="189.579" fx="450.909" fy="189.579" r="21.167" gradientTransform="matrix(0 .03907 .07032 0 -9.858 -4.045)"><stop offset="0" stop-opacity=".314"/><stop offset=".222" stop-opacity=".275"/><stop offset="1" stop-opacity="0"/></radialGradient><radialGradient id="d" gradientUnits="userSpaceOnUse" cx="450.909" cy="189.579" fx="450.909" fy="189.579" r="21.167" gradientTransform="matrix(0 -.03907 .07032 0 -9.858 31.516)"><stop offset="0" stop-opacity=".314"/><stop offset=".222" stop-opacity=".275"/><stop offset="1" stop-opacity="0"/></radialGradient><radialGradient id="e" gradientUnits="userSpaceOnUse" cx="450.909" cy="189.579" fx="450.909" fy="189.579" r="21.167" gradientTransform="matrix(0 .03907 -.07032 0 25.735 -4.045)"><stop offset="0" stop-opacity=".314"/><stop offset=".222" stop-opacity=".275"/><stop offset="1" stop-opacity="0"/></radialGradient><linearGradient id="f" gradientUnits="userSpaceOnUse" x1="127" y1="-31.083" x2="127" y2="-158.083"><stop offset="0" stop-color="#e0e0e0"/><stop offset="1" stop-color="#eee"/></linearGradient><linearGradient id="g" gradientUnits="userSpaceOnUse" x1="381" y1="-31.083" x2="381" y2="-158.083"><stop offset="0" stop-color="#e0e0e0"/><stop offset="1" stop-color="#eee"/></linearGradient><linearGradient id="h" gradientUnits="userSpaceOnUse" x1="127" y1="222.917" x2="127" y2="95.917"><stop offset="0" stop-color="#ef5350"/><stop offset="1" stop-color="#e57373"/></linearGradient><linearGradient id="i" gradientUnits="userSpaceOnUse" x1="127" y1="95.917" x2="127" y2="-31.083"><stop offset="0" stop-color="#e0e0e0"/><stop offset="1" stop-color="#eee"/></linearGradient><linearGradient id="j" gradientUnits="userSpaceOnUse" x1="381" y1="222.917" x2="381" y2="95.917"><stop offset="0" stop-color="#e0e0e0"/><stop offset="1" stop-color="#eee"/></linearGradient><linearGradient id="k" gradientUnits="userSpaceOnUse" x1="381" y1="95.917" x2="381" y2="-31.083"><stop offset="0" stop-color="#81c784"/><stop offset="1" stop-color="#a5d6a7"/></linearGradient><linearGradient id="l" gradientUnits="userSpaceOnUse" x1="254" y1="95.917" x2="254" y2="-31.083"><stop offset="0" stop-color="#e0e0e0"/><stop offset="1" stop-color="#eee"/></linearGradient><linearGradient id="m" gradientUnits="userSpaceOnUse" x1="254" y1="222.917" x2="254" y2="95.917"><stop offset="0" stop-color="#ef5350"/><stop offset="1" stop-color="#e57373"/></linearGradient><linearGradient id="n" gradientUnits="userSpaceOnUse" x1="254" y1="-31.083" x2="254" y2="-158.083"><stop offset="0" stop-color="#424242"/><stop offset="1" stop-color="#616161"/></linearGradient></defs><path d="M3.309 13.71h9.261v.712H3.31zm0 0" fill="url(#a)"/><path d="M12.57 13.734h1.32v-.66h-1.32zm0 0" fill="url(#b)"/><path d="M3.309 13.734H1.984v.664H3.31zm0 0" fill="url(#c)"/><path d="M3.309 13.734H1.984v-.66H3.31zm0 0" fill="url(#d)"/><path d="M12.57 13.734h1.32v.664h-1.32zm0 0" fill="url(#e)"/><path d="M84.617-158.13h105.865c11.749 0 21.123 9.499 21.123 21.248v105.74c0 11.748-9.374 21.247-21.123 21.247H84.617c-11.624 0-21.123-9.499-21.123-21.248v-105.74c0-11.748 9.499-21.247 21.123-21.247zm0 0" transform="matrix(.03125 0 0 .03125 0 6.72)" fill="url(#f)" stroke-width="3" stroke-linecap="round" stroke="#212121"/><path d="M317.47-158.13h105.865c11.748 0 21.123 9.499 21.123 21.248v105.74c0 11.748-9.375 21.247-21.123 21.247H317.47c-11.624 0-21.123-9.499-21.123-21.248v-105.74c0-11.748 9.499-21.247 21.123-21.247zm0 0" transform="matrix(.03125 0 0 .03125 0 6.72)" fill="url(#g)" stroke-width="3" stroke-linecap="round" stroke="#212121"/><path d="M84.617 74.722h105.865c11.749 0 21.123 9.5 21.123 21.248v105.74c0 11.75-9.374 21.248-21.123 21.248H84.617c-11.624 0-21.123-9.499-21.123-21.248V95.97c0-11.749 9.499-21.248 21.123-21.248zm0 0" transform="matrix(.03125 0 0 .03125 0 6.72)" fill="url(#h)" stroke-width="3" stroke-linecap="round" stroke="#212121"/><path d="M63.494-31.143h126.988V95.97H63.494zm0 0" transform="matrix(.03125 0 0 .03125 0 6.72)" fill="url(#i)" stroke-width="3" stroke-linecap="round" stroke="#212121"/><path d="M317.47 74.722h105.865c11.748 0 21.123 9.5 21.123 21.248v105.74c0 11.75-9.375 21.248-21.123 21.248H317.47c-11.624 0-21.123-9.499-21.123-21.248V95.97c0-11.749 9.499-21.248 21.123-21.248zm0 0" transform="matrix(.03125 0 0 .03125 0 6.72)" fill="url(#j)" stroke-width="3" stroke-linecap="round" stroke="#212121"/><path d="M317.47-31.143h126.988V95.97H317.47zm0 0" transform="matrix(.03125 0 0 .03125 0 6.72)" fill="url(#k)" stroke-width="3" stroke-linecap="round" stroke="#212121"/><path d="M190.482-31.143H317.47V95.97H190.482zm0 0" transform="matrix(.03125 0 0 .03125 0 6.72)" fill="url(#l)" stroke-width="3" stroke-linecap="round" stroke="#212121"/><path d="M190.482 95.97H317.47v126.988H190.482zm0 0" transform="matrix(.03125 0 0 .03125 0 6.72)" fill="url(#m)" stroke-width="3" stroke-linecap="round" stroke="#212121"/><path d="M190.482-158.13H317.47v126.987H190.482zm0 0" transform="matrix(.03125 0 0 .03125 0 6.72)" fill="url(#n)" stroke-width="3" stroke-linecap="round" stroke="#212121"/><path d="M2.645 1.777a.663.663 0 0 0-.66.664v.09c0-.367.296-.664.66-.664H13.23a.66.66 0 0 1 .66.664v-.09a.66.66 0 0 0-.66-.664zm0 0" fill="#fff" fill-opacity=".784"/><path d="M2.645 13.695a.663.663 0 0 1-.66-.664v-.09c0 .368.296.66.66.66H13.23c.368 0 .66-.292.66-.66v.09a.66.66 0 0 1-.66.664zm0 0" fill-opacity=".235"/><path d="M2.645 1.73a.708.708 0 0 0-.708.711v10.582c0 .395.317.711.708.711H13.23c.391 0 .707-.316.707-.71V2.44a.708.708 0 0 0-.707-.71zm0 .094H13.23c.34 0 .614.274.614.617v10.582a.613.613 0 0 1-.614.618H2.645a.613.613 0 0 1-.614-.618V2.441c0-.343.274-.617.614-.617zm0 0" fill="#212121"/></svg>
